resources/svg/svelte.svg

<svg xmlns="http://www.w3.org/2000/svg" viewBox="0 0 15 15" fill="currentColor"><path fill-rule="evenodd" clip-rule="evenodd" d="M13.2829 1.94409C14.2083 3.42511 14.046 5.27647 13.0128 6.56576C13.8628 8.37306 13.2462 10.5713 11.5104 11.656L7.27012 14.3056C5.39667 15.4763 2.92892 14.9066 1.75825 13.0331C0.832798 11.5521 0.99519 9.70071 2.02833 8.41145C1.17829 6.60415 1.79488 4.40587 3.53076 3.32117L7.771 0.671576C9.64446 -0.499089 12.1122 0.070635 13.2829 1.94409ZM8.30092 1.51962C9.70601 0.641625 11.5568 1.06892 12.4348 2.47401C13.0645 3.48168 13.023 4.71945 12.4301 5.66263C11.8046 4.92992 10.9523 4.46839 10.0447 4.31762L10.7691 3.86494L10.2392 3.0169L5.15088 6.19641L5.6808 7.04446L7.80091 5.71967C9.206 4.84167 11.0568 5.26899 11.9348 6.67408C12.8128 8.07918 12.3855 9.92999 10.9804 10.808L6.7402 13.4576C5.33511 14.3356 3.4843 13.9083 2.6063 12.5032C1.97665 11.4955 2.01814 10.2578 2.61103 9.31458C3.23653 10.0473 4.08885 10.5088 4.99651 10.6596L4.27222 11.1122L4.80214 11.9602L9.89043 8.78071L9.36051 7.93267L7.24023 9.25756C5.83514 10.1356 3.98429 9.70821 3.10629 8.30312C2.2283 6.89803 2.65559 5.04722 4.06068 4.16922L8.30092 1.51962Z" fill="black"/></svg>

<svg xmlns="http://www.w3.org/2000/svg" viewBox="0 0 15 15" fill="currentColor"><path fill-rule="evenodd" clip-rule="evenodd" d="M13.283 1.944a4.001 4.001 0 01-.27 4.622 4 4 0 01-1.503 5.09l-4.24 2.65A4 4 0 012.028 8.41a4 4 0 011.503-5.09L7.77.671a4 4 0 015.512 1.273zM8.3 1.52a3 3 0 014.13 4.143 3.993 3.993 0 00-2.386-1.345l.724-.453-.53-.848-5.088 3.18.53.847L7.8 5.72a3 3 0 113.18 5.088l-4.24 2.65a3 3 0 01-4.13-4.143 3.993 3.993 0 002.386 1.345l-.725.452.53.848L9.89 8.78l-.53-.847-2.12 1.325a3 3 0 01-3.18-5.089L8.3 1.52z" fill="currentColor"/></svg>
